X: 11
T: Over The Moor To Maggie
Z: ceili
S: https://thesession.org/tunes/115#setting50999
R: reel
M: 4/4
L: 1/8
K: Gmaj
|:"G"G3A BGBd|"Em"efge "G"dBAG|"Am"EA A/A/A "D"ABAG|"Am"EAAG "D"AGEF|
"G"G3A BGBd|"Em"efge "G"dBAG|"Em"EG G/G/G "G"BGAG|1 EGGF G2DE:|2 EGGF G2 ga||
|:"G"b3g "D"a3f|"C"gage "G"d/d/d Bd|"Am"eaag "D"abag|"Am"ea a/a/a "D"a2 ga|
"G"bg g/g/g "D"af f/f/f|"C"gage "G"d2 Bd|"Em"eg g/g/g "G"bgag|1 eggf "G"g2 ga:|2 eggf "G"g2 Bd||
|:"C"e3c "G"d2 dB|"Am"c2 cA "G"B/B/B AG|"Am"EA A/A/A "D"ABAG|"Am"EAAG "D"ABcd|
"C"e3c "G"d2 dB|"Am"cA A/A/A "G"B2 AG|"Em"EG G/G/G "G"BGAG|1 EGGF G2 Bd:|2 EGGF G4||

